static/img/kroki/74003a8de9a43cac7c83ab7a98cfdc9e.svg

<?xml version="1.0" encoding="us-ascii" standalone="no"?><svg xmlns="http://www.w3.org/2000/svg" xmlns:xlink="http://www.w3.org/1999/xlink" contentStyleType="text/css" height="1085px" preserveAspectRatio="none" style="width:400px;height:1085px;" version="1.1" viewBox="0 0 400 1085" width="400px" zoomAndPan="magnify"><defs/><g><!--class gcp_billing_account--><g id="elem_gcp_billing_account"><rect codeLine="22" fill="#3D176E" height="126.6797" id="gcp_billing_account" rx="2.5" ry="2.5" style="stroke:#000D19;stroke-width:0.5;" width="248" x="7" y="712.74"/><ellipse cx="41.8" cy="732.6345" fill="#ADD1B2" rx="11" ry="11" style="stroke:#181818;stroke-width:1.0;"/><path d="M44.7688,738.2752 Q44.1906,738.572 43.55,738.7127 Q42.9094,738.8689 42.2063,738.8689 Q39.7063,738.8689 38.3781,737.2283 Q37.0656,735.572 37.0656,732.447 Q37.0656,729.322 38.3781,727.6658 Q39.7063,726.0095 42.2063,726.0095 Q42.9094,726.0095 43.55,726.1658 Q44.2063,726.322 44.7688,726.6189 L44.7688,729.3377 Q44.1438,728.7595 43.55,728.4939 Q42.9563,728.2127 42.3313,728.2127 Q40.9875,728.2127 40.3,729.2908 Q39.6125,730.3533 39.6125,732.447 Q39.6125,734.5408 40.3,735.6189 Q40.9875,736.6814 42.3313,736.6814 Q42.9563,736.6814 43.55,736.4158 Q44.1438,736.1345 44.7688,735.5564 L44.7688,738.2752 Z " fill="#000000"/><text fill="#D9B8FF" font-family="Helvetica" font-size="17" lengthAdjust="spacing" textLength="162" x="65.2" y="738.5198">gcp_billing_account</text><line style="stroke:#000D19;stroke-width:0.5;" x1="8" x2="254" y1="752.5291" y2="752.5291"/><text fill="#D9B8FF" font-family="sans-serif" font-size="14" font-weight="bold" lengthAdjust="spacing" textLength="105" x="18" y="774.5242">display_name</text><text fill="#D9B8FF" font-family="sans-serif" font-size="14" lengthAdjust="spacing" textLength="48" x="123" y="774.5242">: string</text><text fill="#D9B8FF" font-family="sans-serif" font-size="14" font-weight="bold" lengthAdjust="spacing" textLength="178" x="18" y="800.8211">master_billing_account</text><text fill="#D9B8FF" font-family="sans-serif" font-size="14" lengthAdjust="spacing" textLength="48" x="196" y="800.8211">: string</text><text fill="#D9B8FF" font-family="sans-serif" font-size="14" font-weight="bold" lengthAdjust="spacing" textLength="40" x="18" y="827.1179">open</text><text fill="#D9B8FF" font-family="sans-serif" font-size="14" lengthAdjust="spacing" textLength="65" x="58" y="827.1179">: boolean</text></g><!--class gcp_deprecation_status--><g id="elem_gcp_deprecation_status"><rect codeLine="27" fill="#3D176E" height="179.2734" id="gcp_deprecation_status" rx="2.5" ry="2.5" style="stroke:#000D19;stroke-width:0.5;" width="237" x="100.5" y="899.42"/><ellipse cx="115.5" cy="919.3145" fill="#ADD1B2" rx="11" ry="11" style="stroke:#181818;stroke-width:1.0;"/><path d="M118.4688,924.9552 Q117.8906,925.252 117.25,925.3927 Q116.6094,925.5489 115.9063,925.5489 Q113.4063,925.5489 112.0781,923.9083 Q110.7656,922.252 110.7656,919.127 Q110.7656,916.002 112.0781,914.3458 Q113.4063,912.6895 115.9063,912.6895 Q116.6094,912.6895 117.25,912.8458 Q117.9063,913.002 118.4688,913.2989 L118.4688,916.0177 Q117.8438,915.4395 117.25,915.1739 Q116.6563,914.8927 116.0313,914.8927 Q114.6875,914.8927 114,915.9708 Q113.3125,917.0333 113.3125,919.127 Q113.3125,921.2208 114,922.2989 Q114.6875,923.3614 116.0313,923.3614 Q116.6563,923.3614 117.25,923.0958 Q117.8438,922.8145 118.4688,922.2364 L118.4688,924.9552 Z " fill="#000000"/><text fill="#D9B8FF" font-family="Helvetica" font-size="17" lengthAdjust="spacing" textLength="195" x="134.5" y="925.1998">gcp_deprecation_status</text><line style="stroke:#000D19;stroke-width:0.5;" x1="101.5" x2="336.5" y1="939.2091" y2="939.2091"/><text fill="#D9B8FF" font-family="sans-serif" font-size="14" font-weight="bold" lengthAdjust="spacing" textLength="60" x="111.5" y="961.2042">deleted</text><text fill="#D9B8FF" font-family="sans-serif" font-size="14" lengthAdjust="spacing" textLength="48" x="171.5" y="961.2042">: string</text><text fill="#D9B8FF" font-family="sans-serif" font-size="14" font-weight="bold" lengthAdjust="spacing" textLength="91" x="111.5" y="987.5011">deprecated</text><text fill="#D9B8FF" font-family="sans-serif" font-size="14" lengthAdjust="spacing" textLength="48" x="202.5" y="987.5011">: string</text><text fill="#D9B8FF" font-family="sans-serif" font-size="14" font-weight="bold" lengthAdjust="spacing" textLength="69" x="111.5" y="1013.7979">obsolete</text><text fill="#D9B8FF" font-family="sans-serif" font-size="14" lengthAdjust="spacing" textLength="48" x="180.5" y="1013.7979">: string</text><text fill="#D9B8FF" font-family="sans-serif" font-size="14" font-weight="bold" lengthAdjust="spacing" textLength="99" x="111.5" y="1040.0948">replacement</text><text fill="#D9B8FF" font-family="sans-serif" font-size="14" lengthAdjust="spacing" textLength="48" x="210.5" y="1040.0948">: string</text><text fill="#D9B8FF" font-family="sans-serif" font-size="14" font-weight="bold" lengthAdjust="spacing" textLength="40" x="111.5" y="1066.3917">state</text><text fill="#D9B8FF" font-family="sans-serif" font-size="14" lengthAdjust="spacing" textLength="48" x="151.5" y="1066.3917">: string</text></g><!--class gcp_resource--><g id="elem_gcp_resource"><rect codeLine="34" fill="#3D176E" height="152.9766" id="gcp_resource" rx="2.5" ry="2.5" style="stroke:#000D19;stroke-width:0.5;" width="348" x="45" y="438.76"/><ellipse cx="155.75" cy="458.6545" fill="#ADD1B2" rx="11" ry="11" style="stroke:#181818;stroke-width:1.0;"/><path d="M158.7188,464.2952 Q158.1406,464.592 157.5,464.7327 Q156.8594,464.8889 156.1563,464.8889 Q153.6563,464.8889 152.3281,463.2483 Q151.0156,461.592 151.0156,458.467 Q151.0156,455.342 152.3281,453.6858 Q153.6563,452.0295 156.1563,452.0295 Q156.8594,452.0295 157.5,452.1858 Q158.1563,452.342 158.7188,452.6389 L158.7188,455.3577 Q158.0938,454.7795 157.5,454.5139 Q156.9063,454.2327 156.2813,454.2327 Q154.9375,454.2327 154.25,455.3108 Q153.5625,456.3733 153.5625,458.467 Q153.5625,460.5608 154.25,461.6389 Q154.9375,462.7014 156.2813,462.7014 Q156.9063,462.7014 157.5,462.4358 Q158.0938,462.1545 158.7188,461.5764 L158.7188,464.2952 Z " fill="#000000"/><text fill="#D9B8FF" font-family="Helvetica" font-size="17" lengthAdjust="spacing" textLength="108" x="181.25" y="464.5398">gcp_resource</text><line style="stroke:#000D19;stroke-width:0.5;" x1="46" x2="392" y1="478.5491" y2="478.5491"/><text fill="#D9B8FF" font-family="sans-serif" font-size="14" font-weight="bold" lengthAdjust="spacing" textLength="151" x="56" y="500.5442">deprecation_status</text><text fill="#D9B8FF" font-family="sans-serif" font-size="14" lengthAdjust="spacing" textLength="175" x="207" y="500.5442">: gcp_deprecation_status</text><text fill="#D9B8FF" font-family="sans-serif" font-size="14" font-weight="bold" lengthAdjust="spacing" textLength="89" x="56" y="526.8411">description</text><text fill="#D9B8FF" font-family="sans-serif" font-size="14" lengthAdjust="spacing" textLength="48" x="145" y="526.8411">: string</text><text fill="#D9B8FF" font-family="sans-serif" font-size="14" font-weight="bold" lengthAdjust="spacing" textLength="128" x="56" y="553.1379">label_fingerprint</text><text fill="#D9B8FF" font-family="sans-serif" font-size="14" lengthAdjust="spacing" textLength="48" x="184" y="553.1379">: string</text><text fill="#D9B8FF" font-family="sans-serif" font-size="14" font-weight="bold" lengthAdjust="spacing" textLength="27" x="56" y="579.4348">link</text><text fill="#D9B8FF" font-family="sans-serif" font-size="14" lengthAdjust="spacing" textLength="48" x="83" y="579.4348">: string</text></g><!--class resource--><g id="elem_resource"><rect codeLine="40" fill="#3D176E" height="310.7578" id="resource" rx="2.5" ry="2.5" style="stroke:#000D19;stroke-width:0.5;" width="227" x="105.5" y="7"/><ellipse cx="174.25" cy="26.8945" fill="#ADD1B2" rx="11" ry="11" style="stroke:#181818;stroke-width:1.0;"/><path d="M177.2188,32.5352 Q176.6406,32.832 176,32.9727 Q175.3594,33.1289 174.6563,33.1289 Q172.1563,33.1289 170.8281,31.4883 Q169.5156,29.832 169.5156,26.707 Q169.5156,23.582 170.8281,21.9258 Q172.1563,20.2695 174.6563,20.2695 Q175.3594,20.2695 176,20.4258 Q176.6563,20.582 177.2188,20.8789 L177.2188,23.5977 Q176.5938,23.0195 176,22.7539 Q175.4063,22.4727 174.7813,22.4727 Q173.4375,22.4727 172.75,23.5508 Q172.0625,24.6133 172.0625,26.707 Q172.0625,28.8008 172.75,29.8789 Q173.4375,30.9414 174.7813,30.9414 Q175.4063,30.9414 176,30.6758 Q176.5938,30.3945 177.2188,29.8164 L177.2188,32.5352 Z " fill="#000000"/><text fill="#D9B8FF" font-family="Helvetica" font-size="17" lengthAdjust="spacing" textLength="71" x="199.75" y="32.7798">resource</text><line style="stroke:#000D19;stroke-width:0.5;" x1="106.5" x2="331.5" y1="46.7891" y2="46.7891"/><text fill="#D9B8FF" font-family="sans-serif" font-size="14" font-weight="bold" lengthAdjust="spacing" textLength="29" x="116.5" y="68.7842">age</text><text fill="#D9B8FF" font-family="sans-serif" font-size="14" lengthAdjust="spacing" textLength="66" x="145.5" y="68.7842">: duration</text><text fill="#D9B8FF" font-family="sans-serif" font-size="14" font-weight="bold" lengthAdjust="spacing" textLength="43" x="116.5" y="95.0811">atime</text><text fill="#D9B8FF" font-family="sans-serif" font-size="14" lengthAdjust="spacing" textLength="70" x="159.5" y="95.0811">: datetime</text><text fill="#D9B8FF" font-family="sans-serif" font-size="14" font-weight="bold" lengthAdjust="spacing" textLength="43" x="116.5" y="121.3779">ctime</text><text fill="#D9B8FF" font-family="sans-serif" font-size="14" lengthAdjust="spacing" textLength="70" x="159.5" y="121.3779">: datetime</text><text fill="#D9B8FF" font-family="sans-serif" font-size="14" font-weight="bold" lengthAdjust="spacing" textLength="14" x="116.5" y="147.6748">id</text><text fill="#D9B8FF" font-family="sans-serif" font-size="14" lengthAdjust="spacing" textLength="48" x="130.5" y="147.6748">: string</text><text fill="#D9B8FF" font-family="sans-serif" font-size="14" font-weight="bold" lengthAdjust="spacing" textLength="33" x="116.5" y="173.9717">kind</text><text fill="#D9B8FF" font-family="sans-serif" font-size="14" lengthAdjust="spacing" textLength="48" x="149.5" y="173.9717">: string</text><text fill="#D9B8FF" font-family="sans-serif" font-size="14" font-weight="bold" lengthAdjust="spacing" textLength="90" x="116.5" y="200.2686">last_access</text><text fill="#D9B8FF" font-family="sans-serif" font-size="14" lengthAdjust="spacing" textLength="66" x="206.5" y="200.2686">: duration</text><text fill="#D9B8FF" font-family="sans-serif" font-size="14" font-weight="bold" lengthAdjust="spacing" textLength="90" x="116.5" y="226.5654">last_update</text><text fill="#D9B8FF" font-family="sans-serif" font-size="14" lengthAdjust="spacing" textLength="66" x="206.5" y="226.5654">: duration</text><text fill="#D9B8FF" font-family="sans-serif" font-size="14" font-weight="bold" lengthAdjust="spacing" textLength="48" x="116.5" y="252.8623">mtime</text><text fill="#D9B8FF" font-family="sans-serif" font-size="14" lengthAdjust="spacing" textLength="70" x="164.5" y="252.8623">: datetime</text><text fill="#D9B8FF" font-family="sans-serif" font-size="14" font-weight="bold" lengthAdjust="spacing" textLength="43" x="116.5" y="279.1592">name</text><text fill="#D9B8FF" font-family="sans-serif" font-size="14" lengthAdjust="spacing" textLength="48" x="159.5" y="279.1592">: string</text><text fill="#D9B8FF" font-family="sans-serif" font-size="14" font-weight="bold" lengthAdjust="spacing" textLength="34" x="116.5" y="305.4561">tags</text><text fill="#D9B8FF" font-family="sans-serif" font-size="14" lengthAdjust="spacing" textLength="171" x="150.5" y="305.4561">: dictionary[string, string]</text></g><!--link gcp_billing_account to gcp_deprecation_status--><g id="link_gcp_billing_account_gcp_deprecation_status"><path codeLine="52" d="M157.16,839.81 C164.25,856.79 172.08,875.56 179.71,893.87 " fill="none" id="gcp_billing_account-to-gcp_deprecation_status" style="stroke:#FFAF37;stroke-width:2.0;"/><polygon fill="#FFAF37" points="181.86,898.02,182.08,888.1736,179.9319,893.4067,174.6987,891.2586,181.86,898.02" style="stroke:#FFAF37;stroke-width:2.0;"/></g><!--reverse link gcp_resource to gcp_billing_account--><g id="link_gcp_resource_gcp_billing_account"><path codeLine="53" d="M186.46,611.96 C175.08,645.44 162.59,682.15 152.36,712.26 " fill="none" id="gcp_resource-backto-gcp_billing_account" style="stroke:#FFAF37;stroke-width:2.0;"/><polygon fill="none" points="180.13,609.84,193.19,593.16,193.38,614.35,180.13,609.84" style="stroke:#FFAF37;stroke-width:2.0;"/></g><!--link gcp_resource to gcp_deprecation_status--><g id="link_gcp_resource_gcp_deprecation_status"><path codeLine="54" d="M245.82,592.06 C265.56,657.59 286.63,754.82 272,839.42 C268.91,857.28 263.88,875.83 258.11,893.53 " fill="none" id="gcp_resource-to-gcp_deprecation_status" style="stroke:#FFAF37;stroke-width:2.0;"/><polygon fill="#FFAF37" points="256.3,897.99,262.9276,890.7048,257.8726,893.2437,255.3336,888.1887,256.3,897.99" style="stroke:#FFAF37;stroke-width:2.0;"/></g><!--reverse link resource to gcp_resource--><g id="link_resource_gcp_resource"><path codeLine="55" d="M219,338.65 C219,373.74 219,408.83 219,438.31 " fill="none" id="resource-backto-gcp_resource" style="stroke:#FFAF37;stroke-width:2.0;"/><polygon fill="none" points="212,339.04,219,319.04,226,339.04,212,339.04" style="stroke:#FFAF37;stroke-width:2.0;"/></g><!--SRC=[XPHFYzim4CNl-HI2lOKQaYvjDgKKje7INfRIxQqKCvR6ZeWicP7S9VtptIlPoIB9JlOMl_bftfkHo5uAPDXsxiXQR2iakx07gJiWQDazaNdQ6MM8tTGrrBURlFZ9QFSYy00jii-eVg6J77BY-rxoWqPhsUkez17ueI7JQp6sTmJQ-X9g5r4x1TRUEqUowXr6OSIskglhdCoRtjoAzUOjJZ130kc4h5OhiTxco8jML-T-9XxbRsJhU6aFnk4aviHYeAwc34GKSZBekNunurSGGkg6lOcqRsCcqaY9_hW7OPu2NOEoiOrrI6ZSiSFTP2hStebwCmj_kGJpi3dMyAwif5BUiGJEFUROdyLoAQJj51nBxOTQBj_vXkGHNsWXzCxF98ZfK0UXCaOXwCM_o4jWHyZ1IQDBwy3rThH3XGv5qkQCPhAfh0bm8XBwj1nRpA84YvYCen1QqnF7Ku0yLpWrdtZ0BIVP1J7nKr2XAcl_WTHvBKtZDtQO2PC4WMR8AteQB8FYv7W7miyIVdkDpsWotPD_2oBBPbsuB___a3aCbRuJfrr5bNR6P_8a73HZHyd3CQ3ZZx7swiJyzAFEFRIY-71fnSa5lVzR5CNSKqsnA-rcMfsb_m00]--></g></svg>

<svg xmlns="http://www.w3.org/2000/svg" width="400" height="1085" preserveAspectRatio="none" style="width:400px;height:1085px"><rect width="248" height="126.68" x="7" y="712.74" fill="#3D176E" rx="2.5" ry="2.5" style="stroke:#000d19;stroke-width:.5"/><circle cx="41.8" cy="732.635" r="11" fill="#ADD1B2" style="stroke:#181818;stroke-width:1"/><path d="M44.769 738.275q-.578.297-1.219.438-.64.156-1.344.156-2.5 0-3.828-1.64-1.312-1.657-1.312-4.782t1.312-4.781q1.328-1.657 3.828-1.657.703 0 1.344.157.656.156 1.219.453v2.719q-.625-.578-1.219-.844-.594-.281-1.219-.281-1.344 0-2.031 1.078-.688 1.062-.688 3.156 0 2.094.688 3.172.688 1.062 2.031 1.062.625 0 1.219-.265.594-.282 1.219-.86v2.72Z"/><text x="65.2" y="738.52" fill="#D9B8FF" font-family="Helvetica" font-size="17" textLength="162">gcp_billing_account</text><path d="M8 752.529h246" style="stroke:#000d19;stroke-width:.5"/><text x="18" y="774.524" fill="#D9B8FF" font-family="sans-serif" font-size="14" font-weight="bold" textLength="105">display_name</text><text x="123" y="774.524" fill="#D9B8FF" font-family="sans-serif" font-size="14" textLength="48">: string</text><text x="18" y="800.821" fill="#D9B8FF" font-family="sans-serif" font-size="14" font-weight="bold" textLength="178">master_billing_account</text><text x="196" y="800.821" fill="#D9B8FF" font-family="sans-serif" font-size="14" textLength="48">: string</text><text x="18" y="827.118" fill="#D9B8FF" font-family="sans-serif" font-size="14" font-weight="bold" textLength="40">open</text><text x="58" y="827.118" fill="#D9B8FF" font-family="sans-serif" font-size="14" textLength="65">: boolean</text><rect width="237" height="179.273" x="100.5" y="899.42" fill="#3D176E" rx="2.5" ry="2.5" style="stroke:#000d19;stroke-width:.5"/><circle cx="115.5" cy="919.314" r="11" fill="#ADD1B2" style="stroke:#181818;stroke-width:1"/><path d="M118.469 924.955q-.578.297-1.219.438-.64.156-1.344.156-2.5 0-3.828-1.64-1.312-1.657-1.312-4.782t1.312-4.781q1.328-1.657 3.828-1.657.703 0 1.344.157.656.156 1.219.453v2.719q-.625-.579-1.219-.844-.594-.281-1.219-.281-1.344 0-2.031 1.078-.688 1.062-.688 3.156 0 2.094.688 3.172.688 1.062 2.031 1.062.625 0 1.219-.265.594-.282 1.219-.86v2.72Z"/><text x="134.5" y="925.2" fill="#D9B8FF" font-family="Helvetica" font-size="17" textLength="195">gcp_deprecation_status</text><path d="M101.5 939.209h235" style="stroke:#000d19;stroke-width:.5"/><text x="111.5" y="961.204" fill="#D9B8FF" font-family="sans-serif" font-size="14" font-weight="bold" textLength="60">deleted</text><text x="171.5" y="961.204" fill="#D9B8FF" font-family="sans-serif" font-size="14" textLength="48">: string</text><text x="111.5" y="987.501" fill="#D9B8FF" font-family="sans-serif" font-size="14" font-weight="bold" textLength="91">deprecated</text><text x="202.5" y="987.501" fill="#D9B8FF" font-family="sans-serif" font-size="14" textLength="48">: string</text><text x="111.5" y="1013.798" fill="#D9B8FF" font-family="sans-serif" font-size="14" font-weight="bold" textLength="69">obsolete</text><text x="180.5" y="1013.798" fill="#D9B8FF" font-family="sans-serif" font-size="14" textLength="48">: string</text><text x="111.5" y="1040.095" fill="#D9B8FF" font-family="sans-serif" font-size="14" font-weight="bold" textLength="99">replacement</text><text x="210.5" y="1040.095" fill="#D9B8FF" font-family="sans-serif" font-size="14" textLength="48">: string</text><text x="111.5" y="1066.392" fill="#D9B8FF" font-family="sans-serif" font-size="14" font-weight="bold" textLength="40">state</text><text x="151.5" y="1066.392" fill="#D9B8FF" font-family="sans-serif" font-size="14" textLength="48">: string</text><rect width="348" height="152.977" x="45" y="438.76" fill="#3D176E" rx="2.5" ry="2.5" style="stroke:#000d19;stroke-width:.5"/><circle cx="155.75" cy="458.654" r="11" fill="#ADD1B2" style="stroke:#181818;stroke-width:1"/><path d="M158.719 464.295q-.578.297-1.219.438-.64.156-1.344.156-2.5 0-3.828-1.64-1.312-1.657-1.312-4.782t1.312-4.781q1.328-1.656 3.828-1.656.703 0 1.344.156.656.156 1.219.453v2.719q-.625-.579-1.219-.844-.594-.281-1.219-.281-1.344 0-2.031 1.078-.688 1.062-.688 3.156 0 2.094.688 3.172.688 1.062 2.031 1.062.625 0 1.219-.265.594-.281 1.219-.86v2.72Z"/><text x="181.25" y="464.54" fill="#D9B8FF" font-family="Helvetica" font-size="17" textLength="108">gcp_resource</text><path d="M46 478.549h346" style="stroke:#000d19;stroke-width:.5"/><text x="56" y="500.544" fill="#D9B8FF" font-family="sans-serif" font-size="14" font-weight="bold" textLength="151">deprecation_status</text><text x="207" y="500.544" fill="#D9B8FF" font-family="sans-serif" font-size="14" textLength="175">: gcp_deprecation_status</text><text x="56" y="526.841" fill="#D9B8FF" font-family="sans-serif" font-size="14" font-weight="bold" textLength="89">description</text><text x="145" y="526.841" fill="#D9B8FF" font-family="sans-serif" font-size="14" textLength="48">: string</text><text x="56" y="553.138" fill="#D9B8FF" font-family="sans-serif" font-size="14" font-weight="bold" textLength="128">label_fingerprint</text><text x="184" y="553.138" fill="#D9B8FF" font-family="sans-serif" font-size="14" textLength="48">: string</text><text x="56" y="579.435" fill="#D9B8FF" font-family="sans-serif" font-size="14" font-weight="bold" textLength="27">link</text><text x="83" y="579.435" fill="#D9B8FF" font-family="sans-serif" font-size="14" textLength="48">: string</text><rect width="227" height="310.758" x="105.5" y="7" fill="#3D176E" rx="2.5" ry="2.5" style="stroke:#000d19;stroke-width:.5"/><circle cx="174.25" cy="26.895" r="11" fill="#ADD1B2" style="stroke:#181818;stroke-width:1"/><path d="M177.219 32.535q-.578.297-1.219.438-.64.156-1.344.156-2.5 0-3.828-1.64-1.312-1.657-1.312-4.782t1.312-4.781q1.328-1.656 3.828-1.656.703 0 1.344.156.656.156 1.219.453v2.719q-.625-.578-1.219-.844-.594-.281-1.219-.281-1.344 0-2.031 1.078-.688 1.062-.688 3.156 0 2.094.688 3.172.688 1.062 2.031 1.062.625 0 1.219-.265.594-.281 1.219-.86v2.72Z"/><text x="199.75" y="32.78" fill="#D9B8FF" font-family="Helvetica" font-size="17" textLength="71">resource</text><path d="M106.5 46.789h225" style="stroke:#000d19;stroke-width:.5"/><text x="116.5" y="68.784" fill="#D9B8FF" font-family="sans-serif" font-size="14" font-weight="bold" textLength="29">age</text><text x="145.5" y="68.784" fill="#D9B8FF" font-family="sans-serif" font-size="14" textLength="66">: duration</text><text x="116.5" y="95.081" fill="#D9B8FF" font-family="sans-serif" font-size="14" font-weight="bold" textLength="43">atime</text><text x="159.5" y="95.081" fill="#D9B8FF" font-family="sans-serif" font-size="14" textLength="70">: datetime</text><text x="116.5" y="121.378" fill="#D9B8FF" font-family="sans-serif" font-size="14" font-weight="bold" textLength="43">ctime</text><text x="159.5" y="121.378" fill="#D9B8FF" font-family="sans-serif" font-size="14" textLength="70">: datetime</text><text x="116.5" y="147.675" fill="#D9B8FF" font-family="sans-serif" font-size="14" font-weight="bold" textLength="14">id</text><text x="130.5" y="147.675" fill="#D9B8FF" font-family="sans-serif" font-size="14" textLength="48">: string</text><text x="116.5" y="173.972" fill="#D9B8FF" font-family="sans-serif" font-size="14" font-weight="bold" textLength="33">kind</text><text x="149.5" y="173.972" fill="#D9B8FF" font-family="sans-serif" font-size="14" textLength="48">: string</text><text x="116.5" y="200.269" fill="#D9B8FF" font-family="sans-serif" font-size="14" font-weight="bold" textLength="90">last_access</text><text x="206.5" y="200.269" fill="#D9B8FF" font-family="sans-serif" font-size="14" textLength="66">: duration</text><text x="116.5" y="226.565" fill="#D9B8FF" font-family="sans-serif" font-size="14" font-weight="bold" textLength="90">last_update</text><text x="206.5" y="226.565" fill="#D9B8FF" font-family="sans-serif" font-size="14" textLength="66">: duration</text><text x="116.5" y="252.862" fill="#D9B8FF" font-family="sans-serif" font-size="14" font-weight="bold" textLength="48">mtime</text><text x="164.5" y="252.862" fill="#D9B8FF" font-family="sans-serif" font-size="14" textLength="70">: datetime</text><text x="116.5" y="279.159" fill="#D9B8FF" font-family="sans-serif" font-size="14" font-weight="bold" textLength="43">name</text><text x="159.5" y="279.159" fill="#D9B8FF" font-family="sans-serif" font-size="14" textLength="48">: string</text><text x="116.5" y="305.456" fill="#D9B8FF" font-family="sans-serif" font-size="14" font-weight="bold" textLength="34">tags</text><text x="150.5" y="305.456" fill="#D9B8FF" font-family="sans-serif" font-size="14" textLength="171">: dictionary[string, string]</text><path fill="none" d="M157.16 839.81c7.09 16.98 14.92 35.75 22.55 54.06" style="stroke:#ffaf37;stroke-width:2"/><path fill="#FFAF37" d="m181.86 898.02.22-9.846-2.148 5.233-5.233-2.148 7.161 6.761z" style="stroke:#ffaf37;stroke-width:2"/><g fill="none"><path d="M186.46 611.96c-11.38 33.48-23.87 70.19-34.1 100.3" style="stroke:#ffaf37;stroke-width:2"/><path d="m180.13 609.84 13.06-16.68.19 21.19-13.25-4.51z" style="stroke:#ffaf37;stroke-width:2"/></g><path fill="none" d="M245.82 592.06c19.74 65.53 40.81 162.76 26.18 247.36-3.09 17.86-8.12 36.41-13.89 54.11" style="stroke:#ffaf37;stroke-width:2"/><path fill="#FFAF37" d="m256.3 897.99 6.628-7.285-5.055 2.539-2.54-5.055.967 9.801z" style="stroke:#ffaf37;stroke-width:2"/><path fill="none" d="M219 338.65v99.66m-7-99.27 7-20 7 20h-14z" style="stroke:#ffaf37;stroke-width:2"/></svg>
